svg/clockface/clockfacesquaresolid/clock_05_25.svg

<?xml version="1.0" encoding="UTF-8" standalone="no"?>
<svg
   height="1000"
   width="1000"
   version="1.1"
   viewBox="0 0 1000 1000"
   id="svg7"
   sodipodi:docname="clock_05_25.svg"
   xmlns:inkscape="http://www.inkscape.org/namespaces/inkscape"
   xmlns:sodipodi="http://sodipodi.sourceforge.net/DTD/sodipodi-0.dtd"
   xmlns="http://www.w3.org/2000/svg"
   xmlns:svg="http://www.w3.org/2000/svg">
  <defs
     id="defs11" />
  <sodipodi:namedview
     id="namedview9"
     pagecolor="#ffffff"
     bordercolor="#000000"
     borderopacity="0.25"
     inkscape:showpageshadow="2"
     inkscape:pageopacity="0.0"
     inkscape:pagecheckerboard="0"
     inkscape:deskcolor="#d1d1d1" />
  <path
     id="path15"
     style="color:#000000;fill:#000000;stroke-width:60;-inkscape-stroke:none"
     d="M 129 129 L 129 159 L 129 869 L 869 869 L 869 129 L 129 129 z M 504.50391 470.67188 A 30.003 30.003 0 0 1 525.98047 485 L 600.98047 614.9043 L 640.98047 684.18555 A 30 30 0 0 1 630 725.16602 A 30 30 0 0 1 589.01953 714.18555 L 549.02148 644.90625 A 30 30 0 0 0 549.01953 644.9043 L 474.01953 515 A 30.003 30.003 0 0 1 470.27148 502.30664 A 30.003 30.003 0 0 1 504.50391 470.67188 z " />
</svg>

<svg xmlns="http://www.w3.org/2000/svg" width="1000" height="1000"><path d="M129 129v740h740V129H129zm375.504 341.672A30.003 30.003 0 0 1 525.98 485l75 129.904 40 69.282a30 30 0 0 1-10.98 40.98 30 30 0 0 1-40.98-10.98l-39.999-69.28a30 30 0 0 0-.001-.002L474.02 515a30.003 30.003 0 0 1-3.749-12.693 30.003 30.003 0 0 1 34.233-31.635z" style="-inkscape-stroke:none" stroke-width="60"/></svg>
